public/themes/EC/images/user-single.svg

<?xml version="1.0" encoding="UTF-8"?>
<svg width="178px" height="213px" viewBox="0 0 178 213" version="1.1" xmlns="http://www.w3.org/2000/svg" xmlns:xlink="http://www.w3.org/1999/xlink">
    <!-- Generator: Sketch 61 (89581) - https://sketch.com -->
    <title>user(1)</title>
    <desc>Created with Sketch.</desc>
    <g id="Page-1" stroke="none" stroke-width="1" fill="none" fill-rule="evenodd">
        <g id="CalendarView" transform="translate(-438.000000, -339.000000)" fill="#FFFFFF" fill-rule="nonzero">
            <g id="user(1)" transform="translate(438.000000, 339.000000)">
                <path d="M87.5,103 C101.649857,103 113.900887,97.9248791 123.913779,87.9116697 C133.923408,77.900092 139,65.6503059 139,51.4983688 C139,37.3513257 133.925039,25.099908 123.912148,15.0850678 C113.899256,5.07512128 101.648226,0 87.5,0 C73.3485113,0 61.0991129,5.07512128 51.0878523,15.086699 C41.0765917,25.0982767 36,37.3496945 36,51.4983688 C36,65.6503059 41.0765917,77.9017233 51.0878523,87.913301 C61.1023757,97.9232475 73.3534049,103 87.5,103 Z M59.9490496,23.9465458 C67.6308206,16.2645315 76.6420967,12.5303778 87.4999998,12.5303778 C98.3562717,12.5303778 107.36918,16.2645315 115.052582,23.9465458 C122.734352,31.630191 126.470019,40.6433842 126.470019,51.4983688 C126.470019,62.3566158 122.734352,71.3681778 115.052582,79.0518229 C107.36918,86.7354685 98.3562717,90.4696222 87.4999998,90.4696222 C76.6453595,90.4696222 67.634083,86.7338373 59.9490496,79.0518229 C52.2656479,71.369809 48.5299809,62.3566158 48.5299809,51.4983688 C48.5299809,40.6433842 52.2656479,31.630191 59.9490496,23.9465458 Z" id="Shape"></path>
                <path d="M177.568649,163.836937 C177.280539,159.690772 176.697807,155.167978 175.839988,150.391933 C174.97403,145.580174 173.859027,141.031405 172.524279,136.873877 C171.143955,132.576735 169.270425,128.333166 166.950894,124.266548 C164.54672,120.045706 161.720961,116.370327 158.550122,113.345932 C155.234413,110.181924 151.174827,107.638055 146.480422,105.782509 C141.802294,103.936702 136.617938,103.001623 131.072224,103.001623 C128.894307,103.001623 126.78801,103.892871 122.720285,106.534143 C120.216819,108.162414 117.288513,110.045559 114.020009,112.128382 C111.225177,113.904382 107.439051,115.568367 102.762551,117.074883 C98.1999927,118.547307 93.5674417,119.294072 88.993489,119.294072 C84.422792,119.294072 79.7902411,118.547307 75.2244274,117.074883 C70.5528102,115.569991 66.7650566,113.906005 63.9751085,112.130005 C60.7375312,110.066663 57.8075972,108.183518 55.2666935,106.53252 C51.202224,103.891247 49.0959268,103 46.9180095,103 C41.3706678,103 36.1879401,103.936702 31.5114401,105.784132 C26.82029,107.636432 22.7590763,110.180301 19.4401121,113.347556 C16.2692724,116.373574 13.4435138,120.04733 11.040968,124.266548 C8.72469229,128.333166 6.84953455,132.575112 5.46921009,136.8755 C4.13609003,141.033029 3.02108748,145.580174 2.15512922,150.391933 C1.29568192,155.161484 0.714578447,159.685902 0.426468376,163.841807 C0.143241217,167.905179 0,172.134137 0,176.406928 C0,187.514234 3.540337,196.50625 10.5217185,203.137841 C17.4168298,209.681769 26.5386909,213 37.6350019,213 L140.364998,213 C151.458054,213 160.579915,209.681769 167.476654,203.137841 C174.459663,196.51112 178,187.515858 178,176.405304 C178,172.117903 177.853504,167.888945 177.568649,163.836937 L177.568649,163.836937 Z M158.856137,194.103617 C154.30009,198.428356 148.251404,200.53066 140.363371,200.53066 L37.6350019,200.53066 C29.7453406,200.53066 23.6966551,198.428356 19.1422353,194.105241 C14.6740861,189.863295 12.5026793,184.072625 12.5026793,176.406928 C12.5026793,172.419856 12.6345262,168.483109 12.8982205,164.703833 C13.1554034,160.995986 13.6811638,156.922874 14.4608519,152.594888 C15.2307734,148.320474 16.2106737,144.309051 17.3761363,140.677504 C18.4943942,137.19531 20.0195879,133.747207 21.9110228,130.42573 C23.7161876,127.260098 25.7931857,124.544149 28.0850451,122.355805 C30.2287801,120.308697 32.9308303,118.633348 36.1146919,117.376836 C39.0592754,116.214481 42.368473,115.578108 45.9608977,115.482327 C46.3987599,115.714473 47.178448,116.157662 48.4415751,116.979102 C51.0117784,118.649582 53.9742672,120.555454 57.2492823,122.641524 C60.9409991,124.988961 65.6972584,127.109122 71.3797027,128.938695 C77.1891106,130.812099 83.1140882,131.763412 88.9951167,131.763412 C94.8761456,131.763412 100.802751,130.812099 106.608903,128.940318 C112.296231,127.107499 117.050863,124.988961 120.747462,122.638277 C124.098981,120.501882 126.978455,118.651205 129.548659,116.979102 C130.811786,116.159285 131.591474,115.714473 132.029336,115.482327 C135.623388,115.578108 138.932586,116.214481 141.878798,117.376836 C145.061032,118.633348 147.763081,120.31032 149.906817,122.355805 C152.198676,124.542526 154.275674,127.258475 156.080839,130.427353 C157.973902,133.747207 159.500723,137.196933 160.617353,140.675881 C161.784443,144.312298 162.765971,148.322098 163.534265,152.593265 C164.312325,156.929367 164.839713,161.004103 165.096897,164.705456 L165.096897,164.708703 C165.362219,168.473369 165.495693,172.408492 165.497321,176.406928 C165.495693,184.074249 163.324286,189.863295 158.856137,194.103617 L158.856137,194.103617 Z" id="Shape"></path>
            </g>
        </g>
    </g>
</svg>

<svg width="178" height="213" viewBox="0 0 178 213" xmlns="http://www.w3.org/2000/svg"><title>user(1)</title><path d="M87.5 103c14.15 0 26.4-5.075 36.414-15.088C133.924 77.9 139 65.65 139 51.498c0-14.147-5.075-26.398-15.088-36.413C113.9 5.075 101.648 0 87.5 0 73.349 0 61.1 5.075 51.088 15.087 41.077 25.098 36 37.35 36 51.498c0 14.152 5.077 26.404 15.088 36.415C61.102 97.923 73.353 103 87.5 103zM59.949 23.947C67.631 16.265 76.642 12.53 87.5 12.53c10.856 0 19.87 3.735 27.553 11.417 7.681 7.683 11.417 16.696 11.417 27.551 0 10.859-3.736 19.87-11.417 27.554C107.369 86.735 98.356 90.47 87.5 90.47c-10.855 0-19.866-3.736-27.551-11.418C52.266 71.37 48.53 62.357 48.53 51.498c0-10.855 3.736-19.868 11.419-27.551zm117.62 139.89c-.288-4.146-.871-8.669-1.729-13.445-.866-4.812-1.981-9.36-3.316-13.518a66.687 66.687 0 0 0-5.573-12.607c-2.404-4.221-5.23-7.897-8.4-10.921-3.317-3.164-7.376-5.708-12.07-7.563-4.679-1.846-9.863-2.781-15.409-2.781-2.178 0-4.284.89-8.352 3.532a1130.059 1130.059 0 0 1-8.7 5.594c-2.795 1.776-6.58 3.44-11.257 4.947-4.563 1.472-9.196 2.22-13.77 2.22-4.57 0-9.203-.748-13.769-2.22-4.671-1.505-8.459-3.169-11.249-4.945a1193.627 1193.627 0 0 1-8.708-5.597C51.202 103.89 49.096 103 46.918 103c-5.547 0-10.73.937-15.407 2.784-4.69 1.852-8.752 4.396-12.07 7.564-3.172 3.026-5.997 6.7-8.4 10.919-2.316 4.066-4.191 8.308-5.572 12.608-1.333 4.158-2.448 8.705-3.314 13.517-.86 4.77-1.44 9.294-1.729 13.45A181.606 181.606 0 0 0 0 176.407c0 11.107 3.54 20.1 10.522 26.73C17.417 209.683 26.539 213 37.635 213h102.73c11.093 0 20.215-3.318 27.112-9.862C174.46 196.51 178 187.516 178 176.405c0-4.287-.146-8.516-.431-12.568zm-18.713 30.267c-4.556 4.324-10.605 6.427-18.493 6.427H37.635c-7.89 0-13.938-2.103-18.493-6.426-4.468-4.242-6.64-10.032-6.64-17.698 0-3.987.133-7.924.396-11.703.257-3.708.783-7.781 1.563-12.11.77-4.274 1.75-8.285 2.915-11.916a54.39 54.39 0 0 1 4.535-10.252c1.805-3.166 3.882-5.882 6.174-8.07 2.144-2.047 4.846-3.723 8.03-4.98 2.944-1.162 6.253-1.798 9.846-1.894.438.232 1.217.676 2.48 1.497 2.57 1.67 5.533 3.576 8.808 5.663 3.692 2.347 8.448 4.467 14.13 6.297 5.81 1.873 11.735 2.824 17.616 2.824s11.808-.95 17.614-2.823c5.687-1.833 10.442-3.951 14.138-6.302 3.352-2.136 6.231-3.987 8.802-5.659 1.263-.82 2.042-1.265 2.48-1.497 3.594.096 6.904.732 9.85 1.895 3.182 1.256 5.884 2.933 8.028 4.979 2.292 2.187 4.369 4.902 6.174 8.071 1.893 3.32 3.42 6.77 4.536 10.249 1.167 3.636 2.149 7.646 2.917 11.917.778 4.336 1.306 8.411 1.563 12.112v.004c.265 3.764.399 7.7.4 11.698-.001 7.667-2.173 13.456-6.64 17.697z" fill="#FFF"/></svg>
